X: 44
T: Honey Suckle Schottische
L:1/8
M:4/4
S:Viola "Mom" Ruth - Pioneer Western Folk Tunes (1948).
Z:AK/Fiddler's Companion
K:F
C>FA>c f2f2|e2e2 d4|C>EG>B e2e2|d2d2 c4|C>FA>c f2f2|e2e2 d4|
C>EG>B e2d2|(3cdc (3BAG F4||A4 B2 =B2|c6 c2|c2 =Bc ec_BA|
G6D2|G4 B2c2|d6 (^cd)|b>ge>c d2c2|A6 A2|A4 B2=B2|c6 c2|
C2 =Bc d>cB>A|G6D2|G4 B2c2|d6 (^cd)|b>ge>c d2e2|f2f2f2 z2||

%%sep 1 1 500
